X: 1
T:Pindsvine Reinl\"ander
R:Reinl\"ander
O:Norway
O:Denmark
M:4/4
Q:1/4=200
K:G
D2| \
G2G2 G2AG | GFFE F2DF | A4   Addc | B2G2 G2GF |\
E2E2 EGFE | E2D2 D4   | D2FA dAFD | G2G2 G2 :|
|:Bc|\
d4 d2ed | dccB c2AB | c4 c2dc | cBBA B2GF |\
E2E2 EGFE | E2D2 D4 | D2FA dAFD | G2G2 G4 :|
K:C
|:\
e4 e3d | cdcA G2E2 | FGFD B2A2 | GAGE c2c2 |\
e4 e3d | cdcA G2E2 | FEDE FGAB | c2c2 c4 :|
